assets/images/flags/1x1/tv.svg

<?xml version="1.0" encoding="UTF-8" standalone="no"?>
<!-- Created with Sodipodi ("http://www.sodipodi.com/") -->
<svg id="svg2498" xmlns:rdf="http://www.w3.org/1999/02/22-rdf-syntax-ns#" xmlns="http://www.w3.org/2000/svg" height="512" width="512" version="1.1" xmlns:cc="http://creativecommons.org/ns#" xmlns:dc="http://purl.org/dc/elements/1.1/">
 <metadata id="metadata4144">
  <rdf:RDF>
   <cc:Work rdf:about="">
    <dc:format>image/svg+xml</dc:format>
    <dc:type rdf:resource="http://purl.org/dc/dcmitype/StillImage"/>
   </cc:Work>
  </rdf:RDF>
 </metadata>
 <defs id="defs2500">
  <clipPath id="clipPath5808" clipPathUnits="userSpaceOnUse">
   <rect id="rect5810" fill-opacity="0.67" height="512" width="512" y="0" x="0"/>
  </clipPath>
 </defs>
 <g id="flag" clip-path="url(#clipPath5808)">
  <g id="g5564" transform="matrix(1.0043 0 0 1.0043 .000032724 -2.2302)">
   <rect id="rect1310" fill-rule="evenodd" height="127.48" width="256.68" y=".0000030912" x=".0031374" stroke-width="1pt" fill="#fff"/>
   <path id="path549" d="m0.0031377 0.00036134-0.010693 9.5679 61.254 31.474 23.048 0.668-84.291-41.71z" fill="#c00"/>
   <path id="path551" d="m26.229 0.00036134 74.261 38.79v-38.79h-74.261z" fill="#006"/>
   <path id="path552" fill="#c00" d="m110.4 0.00036134v49.519h-110.39v28.297h110.39v49.519h33.968v-49.519h110.39v-28.297h-110.39v-49.519h-33.968z"/>
   <path id="path554" d="m154.27 0.00036134v36.55l72.65-36.267-72.65-0.28264z" fill="#006"/>
   <path id="path555" d="m156.57 40.535 20.43-0.165 79.37-40.087-21.06 0.34364-78.74 39.908z" fill="#c00"/>
   <path id="path700" d="m0.0031377 86.069v27.118l50.951-26.837-50.951-0.284z" fill="#006"/>
   <path id="path701" d="m196.2 87.189-21.24-0.16494 80.064 39.863-0.52668-9.12-58.297-30.578zm-176.3 40.371 75.072-39.416-19.718 0.131-75.25 39.225" fill="#c00"/>
   <path id="path556" d="m255.83 11.199-60.63 30.067 59.824 0.22388v44.803h-50.951l50.48 27.352 0.74095 13.914-26.963-0.32217-73.794-36.228v36.55h-53.781v-36.55l-69.223 36.452-31.264 0.0981v127.33h509.51v-254.67l-253.41-0.20964m-256.1 14.373-0.26886 26.445 53.64 0.672-53.371-27.117z" fill="#006"/>
   <g id="g3304" fill-rule="evenodd" transform="matrix(.51383 0 0 .51383 -.003673 .00019115)" stroke-width="1pt" fill="#009fca">
    <rect id="rect3302" height="496.06" width="496.06" y="-.000015260" x="496.06"/>
    <rect id="rect3303" height="248.03" width="523.49" y="248.03" x="0"/>
   </g>
   <g id="g5547" fill-rule="evenodd" transform="matrix(.51383 0 0 .51383 -.003673 260)" stroke-width="1pt" fill="#009fca">
    <rect id="rect5549" height="515.87" width="486.16" y="-19.81" x="505.97"/>
    <rect id="rect5551" ry="0" height="521.41" width="523.49" y="-25.343" x="-7.1124e-17"/>
   </g>
   <g id="g5553" fill-rule="evenodd" transform="matrix(1.2509 0 0 1.2509 -129.15 180.34)" stroke-width="1pt" fill="#fff40d">
    <polygon id="polygon136" transform="matrix(.25628 0 0 .24119 337.93 -50.489)" points="569.1 365.81 591.04 433.16 591.04 433.16 533.77 391.48 476.5 433.15 498.45 365.81 441.12 324.21 511.95 324.28 533.78 256.9 555.61 324.28 626.44 324.23"/>
    <polygon id="polygon3314" transform="matrix(.25628 0 0 .24119 292.37 79.065)" points="569.1 365.81 591.04 433.16 591.04 433.16 533.77 391.48 476.5 433.15 498.45 365.81 441.12 324.21 511.95 324.28 533.78 256.9 555.61 324.28 626.44 324.23"/>
    <polygon id="polygon3315" transform="matrix(.25628 0 0 .24119 337.93 49.738)" points="569.1 365.81 591.04 433.16 591.04 433.16 533.77 391.48 476.5 433.15 498.45 365.81 441.12 324.21 511.95 324.28 533.78 256.9 555.61 324.28 626.44 324.23"/>
    <polygon id="polygon3317" transform="matrix(.25628 0 0 .24119 142.03 143.7)" points="569.1 365.81 591.04 433.16 591.04 433.16 533.77 391.48 476.5 433.15 498.45 365.81 441.12 324.21 511.95 324.28 533.78 256.9 555.61 324.28 626.44 324.23"/>
    <polygon id="polygon3319" transform="matrix(-.25628 0 0 -.24119 468.01 249.77)" points="569.1 365.81 591.04 433.16 591.04 433.16 533.77 391.48 476.5 433.15 498.45 365.81 441.12 324.21 511.95 324.28 533.78 256.9 555.61 324.28 626.44 324.23"/>
    <polygon id="polygon3320" transform="matrix(-.25628 0 0 -.24119 521.54 175.74)" points="569.1 365.81 591.04 433.16 591.04 433.16 533.77 391.48 476.5 433.15 498.45 365.81 441.12 324.21 511.95 324.28 533.78 256.9 555.61 324.28 626.44 324.23"/>
    <polygon id="polygon3321" transform="matrix(-.25628 0 0 -.24119 566.53 160.36)" points="569.1 365.81 591.04 433.16 591.04 433.16 533.77 391.48 476.5 433.15 498.45 365.81 441.12 324.21 511.95 324.28 533.78 256.9 555.61 324.28 626.44 324.23"/>
    <polygon id="polygon3322" transform="matrix(-.25628 0 0 -.24119 521.54 288.49)" points="569.1 365.81 591.04 433.16 591.04 433.16 533.77 391.48 476.5 433.15 498.45 365.81 441.12 324.21 511.95 324.28 533.78 256.9 555.61 324.28 626.44 324.23"/>
    <polygon id="polygon3323" transform="matrix(-.25628 0 0 -.24119 468.01 301.59)" points="569.1 365.81 591.04 433.16 591.04 433.16 533.77 391.48 476.5 433.15 498.45 365.81 441.12 324.21 511.95 324.28 533.78 256.9 555.61 324.28 626.44 324.23"/>
   </g>
  </g>
 </g>
</svg>

<svg id="svg2498" xmlns="http://www.w3.org/2000/svg" height="512" width="512" version="1.1"><defs id="defs2500"><clipPath id="clipPath5808" clipPathUnits="userSpaceOnUse"><path id="rect5810" fill-opacity=".67" d="M0 0h512v512H0z"/></clipPath></defs><g id="flag" clip-path="url(#clipPath5808)"><g id="g5564" transform="translate(0 -2.23) scale(1.0043)"><path id="rect1310" fill-rule="evenodd" stroke-width="1pt" fill="#fff" d="M.003 0h256.68v127.48H.003z"/><path id="path549" d="M.003 0l-.01 9.568 61.253 31.474 23.048.668L.004 0z" fill="#c00"/><path id="path551" d="M26.229 0l74.261 38.79V0H26.229z" fill="#006"/><path id="path552" fill="#c00" d="M110.4 0v49.52H.01v28.296H110.4v49.52h33.968v-49.52h110.39V49.52h-110.39V0H110.4z"/><path id="path554" d="M154.27 0v36.55L226.92.283 154.27.001z" fill="#006"/><path id="path555" d="M156.57 40.535L177 40.37 256.37.283l-21.06.344-78.74 39.908z" fill="#c00"/><path id="path700" d="M.003 86.069v27.118L50.954 86.35l-50.95-.284z" fill="#006"/><path id="path701" d="M196.2 87.189l-21.24-.165 80.064 39.863-.527-9.12L196.2 87.19zM19.9 127.56l75.072-39.416-19.718.131L.004 127.5" fill="#c00"/><path id="path556" d="M255.83 11.199L195.2 41.266l59.824.224v44.803h-50.951l50.48 27.352.741 13.914-26.963-.322-73.794-36.228v36.55h-53.781v-36.55L31.533 127.46l-31.264.098v127.33h509.51V.219l-253.41-.21M.269 14.382L0 40.827l53.64.672L.27 14.382z" fill="#006"/><g id="g3304" fill-rule="evenodd" transform="translate(-.004) scale(.51383)" stroke-width="1pt" fill="#009fca"><path id="rect3302" d="M496.06 0h496.06v496.06H496.06z"/><path id="rect3303" d="M0 248.03h523.49v248.03H0z"/></g><g id="g5547" fill-rule="evenodd" transform="translate(-.004 260) scale(.51383)" stroke-width="1pt" fill="#009fca"><path id="rect5549" d="M505.97-19.81h486.16v515.87H505.97z"/><rect id="rect5551" ry="0" height="521.41" width="523.49" y="-25.343" x="0"/></g><g id="g5553" fill-rule="evenodd" transform="translate(-129.15 180.34) scale(1.2509)" stroke-width="1pt" fill="#fff40d"><path id="polygon136" transform="matrix(.25628 0 0 .24119 337.93 -50.489)" d="M569.1 365.81l21.94 67.35-57.27-41.68-57.27 41.67 21.95-67.34-57.33-41.6 70.83.07 21.83-67.38 21.83 67.38 70.83-.05z"/><path id="polygon3314" transform="matrix(.25628 0 0 .24119 292.37 79.065)" d="M569.1 365.81l21.94 67.35-57.27-41.68-57.27 41.67 21.95-67.34-57.33-41.6 70.83.07 21.83-67.38 21.83 67.38 70.83-.05z"/><path id="polygon3315" transform="matrix(.25628 0 0 .24119 337.93 49.738)" d="M569.1 365.81l21.94 67.35-57.27-41.68-57.27 41.67 21.95-67.34-57.33-41.6 70.83.07 21.83-67.38 21.83 67.38 70.83-.05z"/><path id="polygon3317" transform="matrix(.25628 0 0 .24119 142.03 143.7)" d="M569.1 365.81l21.94 67.35-57.27-41.68-57.27 41.67 21.95-67.34-57.33-41.6 70.83.07 21.83-67.38 21.83 67.38 70.83-.05z"/><path id="polygon3319" transform="matrix(-.25628 0 0 -.24119 468.01 249.77)" d="M569.1 365.81l21.94 67.35-57.27-41.68-57.27 41.67 21.95-67.34-57.33-41.6 70.83.07 21.83-67.38 21.83 67.38 70.83-.05z"/><path id="polygon3320" transform="matrix(-.25628 0 0 -.24119 521.54 175.74)" d="M569.1 365.81l21.94 67.35-57.27-41.68-57.27 41.67 21.95-67.34-57.33-41.6 70.83.07 21.83-67.38 21.83 67.38 70.83-.05z"/><path id="polygon3321" transform="matrix(-.25628 0 0 -.24119 566.53 160.36)" d="M569.1 365.81l21.94 67.35-57.27-41.68-57.27 41.67 21.95-67.34-57.33-41.6 70.83.07 21.83-67.38 21.83 67.38 70.83-.05z"/><path id="polygon3322" transform="matrix(-.25628 0 0 -.24119 521.54 288.49)" d="M569.1 365.81l21.94 67.35-57.27-41.68-57.27 41.67 21.95-67.34-57.33-41.6 70.83.07 21.83-67.38 21.83 67.38 70.83-.05z"/><path id="polygon3323" transform="matrix(-.25628 0 0 -.24119 468.01 301.59)" d="M569.1 365.81l21.94 67.35-57.27-41.68-57.27 41.67 21.95-67.34-57.33-41.6 70.83.07 21.83-67.38 21.83 67.38 70.83-.05z"/></g></g></g></svg>
